app/images/website-logo.svg

<svg fill="none" height="16" viewBox="0 0 16 16" width="16" xmlns="http://www.w3.org/2000/svg"><path clip-rule="evenodd" d="m7.24607.391005c-2.35557.150888-4.47002 1.360005-5.77668 3.303285-.639765.95146-1.029933 1.97083-1.209981 3.16131-.05112.33799-.071184 1.32504-.034824 1.71285.113784 1.21308.508176 2.35485 1.167835 3.38095.38062.592 1.08353 1.3698 1.62096 1.7935 1.14752.9048 2.52377 1.4636 3.94469 1.6015.36876.0358 1.11744.0358 1.488-.0001.86734-.0839 1.76453-.3459 2.59403-.7573 1.4531-.7208 2.6277-1.8909 3.3557-3.3429.4086-.8151.651-1.63794.7612-2.58464.0438-.37625.0381-1.24603-.0108-1.64782-.3531-2.90145-2.3068-5.31259-5.0561-6.239995-.91133-.307392-1.90704-.440664-2.84403-.38064zm-.12 1.517115c-.132.01212-.25233.03492-.26738.05068-.04455.04659-.2251.85222-.34411 1.53545-.07174.41182-.19251 1.25206-.19251 1.3393 0 .04469.03679.04591 1.37146.04591h1.37143l-.01591-.174c-.02465-.26928-.12946-.97195-.21034-1.41-.09031-.48924-.27739-1.32259-.30225-1.3465-.02873-.02764-.60401-.06986-.90168-.06619-.1478.00183-.37671.01323-.50871.02535zm3.09173.57549c.0739.29916.2692 1.51733.3283 2.04785.0147.132.0317.26431.0378.294l.0111.054h1.1421c.9902 0 1.1403-.00466 1.1287-.03497-.0273-.07116-.3309-.51144-.4872-.70641-.5366-.66967-1.2384-1.23929-1.9976-1.62123-.1718-.08642-.1766-.08741-.1632-.03324zm-5.35301.11374c-.68057.3557-1.34393.906-1.84886 1.53374-.17002.21137-.41136.55824-.4831.69437l-.02844.054h1.15039 1.15042l.01651-.174c.04452-.4691.20971-1.54272.31414-2.04156.03929-.18782.04092-.20865.01622-.20786-.00989.00029-.13917.06388-.28728.14131zm-2.99429 3.84811c-.12842.55579-.1637.86511-.16358 1.434.00005.2706.01284.5838.02842.696.02853.20556.11397.6721.13735.75.01183.03941.10308.042 1.47528.042h1.46268l-.01239-.09c-.0576-.41909-.11685-1.78954-.10485-2.42472l.00871-.46128h-1.40957-1.40957zm4.33169.648c.0001.60996.04404 1.63003.08451 1.962.00724.0594.01884.15391.02575.21l.01257.102h1.37492 1.37493l.02777-.318c.06598-.75509.08583-1.34371.07815-2.316l-.00272-.342h-1.488-1.488zm4.48781.05981c-.0001.66293-.0364 1.52143-.0868 2.05238l-.0154.16219 1.4611-.00619 1.461-.00619.0413-.192c.1732-.80654.1777-1.72454.0121-2.508l-.0532-.252-1.41-.00619-1.41-.00619zm-8.15702 3.78023c.01574.0296.09355.1512.17294.27.54996.823 1.32372 1.52 2.18849 1.9714.29378.1534.68594.3263.70245.3098.00454-.0046-.01893-.0985-.05217-.2088-.13423-.4452-.38011-1.4986-.47254-2.0244-.02551-.1452-.05193-.2884-.0587-.318l-.01229-.054h-1.24838-1.24839zm4.01836.036c.11921.695.41878 1.8646.71062 2.7744.03878.1209.08366.1356.41467.1356.42684 0 .39739.0174.50038-.2961.22123-.6735.44455-1.5243.59165-2.2539l.09069-.45h-1.16172-1.16174zm3.73396.4562c-.0937.4881-.37395 1.6574-.46871 1.9558-.01992.0626-.03163.114-.02604.114.00562 0 .1374-.0546.29285-.1213.8284-.3552 1.6041-.9302 2.1831-1.6182.1812-.2153.6076-.819.6076-.8603 0-.0089-.5589-.0161-1.242-.016l-1.242.0002z" fill="#000" fill-rule="evenodd"/></svg>

<svg width="16" height="16" viewBox="0 0 16 16" fill="none" xmlns="http://www.w3.org/2000/svg">
<path fill-rule="evenodd" clip-rule="evenodd" d="M7.24607 0.391005C4.8905 0.541893 2.77605 1.75101 1.46939 3.69429C0.829625 4.64575 0.439457 5.66512 0.259409 6.8556C0.208289 7.19359 0.188225 8.18064 0.224585 8.56845C0.338369 9.78153 0.732761 10.9233 1.39242 11.9494C1.77304 12.5414 2.47595 13.3192 3.01338 13.7429C4.1609 14.6477 5.53715 15.2065 6.95807 15.3444C7.32683 15.3802 8.07551 15.3802 8.44607 15.3443C9.31341 15.2604 10.2106 14.9984 11.0401 14.587C12.4932 13.8662 13.6678 12.6961 14.3958 11.2441C14.8044 10.429 15.0468 9.60616 15.157 8.65946C15.2008 8.28321 15.1951 7.41343 15.1462 7.01164C14.7931 4.11019 12.8394 1.69905 10.0901 0.771645C9.17877 0.464253 8.18306 0.330981 7.24607 0.391005ZM7.12607 1.90812C6.99407 1.92024 6.87374 1.94304 6.85869 1.9588C6.81414 2.00539 6.63359 2.81102 6.51458 3.49425C6.44284 3.90607 6.32207 4.74631 6.32207 4.83355C6.32207 4.87824 6.35886 4.87946 7.69353 4.87946H9.06496L9.04905 4.70546C9.0244 4.43618 8.91959 3.73351 8.83871 3.29546C8.7484 2.80622 8.56132 1.97287 8.53646 1.94896C8.50773 1.92132 7.93245 1.8791 7.63478 1.88277C7.48698 1.8846 7.25807 1.896 7.12607 1.90812ZM10.2178 2.48361C10.2917 2.78277 10.487 4.00094 10.5461 4.53146C10.5608 4.66346 10.5778 4.79577 10.5839 4.82546L10.595 4.87946H11.7371C12.7273 4.87946 12.8774 4.8748 12.8658 4.84449C12.8385 4.77333 12.5349 4.33305 12.3786 4.13808C11.842 3.46841 11.1402 2.89879 10.381 2.51685C10.2092 2.43043 10.2044 2.42944 10.2178 2.48361ZM4.86479 2.59735C4.18422 2.95305 3.52086 3.50335 3.01593 4.13109C2.84591 4.34246 2.60457 4.68933 2.53283 4.82546L2.50439 4.87946H3.65478H4.8052L4.82171 4.70546C4.86623 4.23636 5.03142 3.16274 5.13585 2.6639C5.17514 2.47608 5.17677 2.45525 5.15207 2.45604C5.14218 2.45633 5.0129 2.51992 4.86479 2.59735ZM1.8705 6.44546C1.74208 7.00125 1.7068 7.31057 1.70692 7.87946C1.70697 8.15006 1.71976 8.46326 1.73534 8.57546C1.76387 8.78102 1.84931 9.24756 1.87269 9.32546C1.88452 9.36487 1.97577 9.36746 3.34797 9.36746H4.81065L4.79826 9.27746C4.74066 8.85837 4.68141 7.48792 4.69341 6.85274L4.70212 6.39146H3.29255H1.88298L1.8705 6.44546ZM6.20219 7.09346C6.20229 7.70342 6.24623 8.72349 6.2867 9.05546C6.29394 9.11486 6.30554 9.20937 6.31245 9.26546L6.32502 9.36746H7.69994H9.07487L9.10264 9.04946C9.16862 8.29437 9.18847 7.70575 9.18079 6.73346L9.17807 6.39146H7.69007H6.20207L6.20219 7.09346ZM10.69 7.15327C10.6899 7.8162 10.6536 8.6747 10.6032 9.20565L10.5878 9.36784L12.0489 9.36165L13.5099 9.35546L13.5512 9.16346C13.7244 8.35692 13.7289 7.43892 13.5633 6.65546L13.5101 6.40346L12.1001 6.39727L10.6901 6.39108L10.69 7.15327ZM2.53298 10.9335C2.54872 10.9631 2.62653 11.0847 2.70592 11.2035C3.25588 12.0265 4.02964 12.7235 4.89441 13.1749C5.18819 13.3283 5.58035 13.5012 5.59686 13.4847C5.6014 13.4801 5.57793 13.3862 5.54469 13.2759C5.41046 12.8307 5.16458 11.7773 5.07215 11.2515C5.04664 11.1063 5.02022 10.9631 5.01345 10.9335L5.00116 10.8795H3.75278H2.50439L2.53298 10.9335ZM6.55134 10.9695C6.67055 11.6645 6.97012 12.8341 7.26196 13.7439C7.30074 13.8648 7.34562 13.8795 7.67663 13.8795C8.10347 13.8795 8.07402 13.8969 8.17701 13.5834C8.39824 12.9099 8.62156 12.0591 8.76866 11.3295L8.85935 10.8795H7.69763H6.53589L6.55134 10.9695ZM10.2853 11.4257C10.1916 11.9138 9.91135 13.0831 9.81659 13.3815C9.79667 13.4441 9.78496 13.4955 9.79055 13.4955C9.79617 13.4955 9.92795 13.4409 10.0834 13.3742C10.9118 13.019 11.6875 12.444 12.2665 11.756C12.4477 11.5407 12.8741 10.937 12.8741 10.8957C12.8741 10.8868 12.3152 10.8796 11.6321 10.8797L10.3901 10.8799L10.2853 11.4257Z" fill="black"/>
</svg>
